X:1
T:Khvalitye imya Gospodie
T:П. И. Чаиковский, 1883
T:From Russian Orthodox Liturgy
T:Свете тихий
T:Киевскаго роспева Всенощное бдение,  Opus 50, No. 5
T:Public Domain
T:Public Domain
T:Public Domain
T:Public Domain
T:Public Domain
C:Sergei Rakhmanninov
Z:Public Domain
%%score [ ( 1 2 ) ( 3 4 ) ( 5 6 ) ( 7 8 ) ]
L:1/8
Q:1/4=132
M:4/4
K:C
V:1 treble nm="Дискант" snm="Д"
V:2 treble 
V:3 treble nm="Альт" snm="A."
V:4 treble 
V:5 treble-8 nm="Тенор" snm="Т"
V:6 treble-8 
V:7 bass nm="Бас" snm="Б"
V:8 bass 
V:1
"^Оживленно\nLively" z8 | z8 | %2
!pp!"^Све –те   ти-хий, свя –ты –  я      сла     –     вы,     Све-те  ти-хий,                    свя–ты–я  сла-вы, без–""^Svye–te    ti–khii, svya– ty  – ya     sla     –      vy,     Svye-te   ti–khii,                     svya-ty-ya  sla–vy,  bez–" d6 e2 | %3
 d4 d2 c2 | d6 e2 | (d6 c2) | d2 z2!pp! G2 G2 |!<(! G2 G2 z4!<)! | z2 G2 G2 G2 | G4 G2!p! d2 | %10
 e6 e2 | d2 d2 d2 d2 | e6 e2 | d4 (d2 e2) | !>![df]4 [ce]2 [ce]2 | [Bd]4 [Ac]4 | %16
"^постепенно усиливая\ngradually louder" [Bd]4!<(! [Bd]2 [ce]2!<)! | !>![df]4 [ce]2 [ce]2 | %18
 [Bd]2 [Bd]2 !>![df]4 | [ce]2 [ce]2 [ce]2 [ce]2 |[M:3/2]!mf! ([Bd]4 [Ac]4) [Bd]4 | %21
 !>![df]4 [ce]2 [ce]2 [Bd]2 [Ac]2 | ([Bd]4 [ce]4) [Bd]2!f! [Bd]2 | !>![df]4 [ce]4 [Bd]2 ([Bd][ce] | %24
 [df]2 [ce]2) ([Bd]2 [ce]2) [df]2 [ce]2 | !>![df]6 [ce]2 [ce]2 [ce]2 | %26
 (d4 c4) d2!ff!"^Живее\nFaster"[Q:1/4=145]"^Dos–""^Дос–" d2 | %27
[M:4/4]"^–то        –      ин          е     –    си _______    во ________   вся                    вре – ме   –  на,                  Дос       –        то         –       ин      е  –""^– to        –       in          ye    –    si _______     vo ________   vsya                  vre – mye  – na,                  Dos       –        to         –        in      ye  –" f4 e2 e2 | %28
 defg (a2 g2) | f4 e2 e2 | d4 (g2 f2) | e4 d2 d2 | %32
"^–си _______   во ______         вся                вре –  ме   –   на      петь   бы  – ти          гла – сы       пре – по     –    доб  –  ны – ми. __""^–si  _______   vo ______          vsya              vre  – mye –   na       pet'     by  –  ti            gla  – sy       prye – po    –     dob –  ny  –  mi. __" cdef (g2 f2) | %33
 e4 d2 d2 | c2 c2 A2 d2 | B2 e2 c2 d2 |[Q:1/4=130]"^Задерживая\nSlowing" e6 e2 | %37
[Q:1/4=110] e4- e2 !fermata!z2 |"^Прежняя скорость\nPrevious speed"[Q:1/4=132]!f! [df]6 [ce]2 | %39
 [Bd]4 [ce]2 [ce]2 | [ce][Bd] [Ac]2 (d2 c2 | !fermata!d8) | d4 e4 | f4 e4 | %44
"^Задерживая\nSlowing"[Q:1/4=125] (d2 e2 f2 gf | e2 d2 c2 e2 |[Q:1/4=120] d4 c4 | %47
[Q:1/4=100]!mp!!<(! d6 c2!<)! |[Q:1/4=90]!p! B2 cB A4) |[Q:1/4=80]!pp! !fermata!B8 |] %50
V:2
 x8 | x8 | B6 c2 | B4 B2 A2 | B6 c2 | (B6 A2) | B2 x2 x4 | x8 | x8 | x8 | x8 | x8 | x8 | %13
 x4 (d2 c2) | x8 | x8 | x8 | x8 | x8 | x8 |[M:3/2] x12 | x12 | x12 | x12 | x12 | x12 | %26
 (B4 A4) B2 x2 |[M:4/4] x8 | x8 | x8 | x8 | x8 | x8 | x8 | x8 | x8 | x8 | x8 | x8 | x8 | x4 A4- | %41
 A8 | x8 | x8 | x8 | x8 | x8 | x8 | x8 | x8 |] %50
V:3
!pp!"^Све–те   ти–хий,  свя     –     ты         –         я                 сла     –      вы,""^Svye-te    ti–khii,   svya   –      ty           –        ya                sla     –       vy," G6 G2 | %1
 G4!pp! G4 | %2
"^Све –те   ти-хий, свя –ты –  я      сла     –     вы,""^Svye–te    ti–khii, svya– ty  – ya     sla     –      vy," G8 | %3
 G8 | G8 | G8 | %6
 G2 z2!pp!"^Све–те  ти-хий,                    свя–ты–я  сла-вы, без–""^Svye–te   ti–khii,                     svya-ty-ya  sla–vy,  bez–" G2 G2 | %7
!<(! G2 G2 z4!<)! | z2 G2 G2 G2 | G4 G2!p! G2 | %10
"^–smert–na–vo Ot–tsa nye–bes–na   –  vo,    svya   –     ta  –  vo  bla-zhen-na-vo       I–i–su–sye Khri-ste:  pri-shed-she na zapad""^–смерт-на–го От–ца не – бес–на   –  го,     свя     –    та  –  го бла-жен-на –го      И–и–су–се Хри-сте: при-шед-ше на запад" G4 A4 | %11
 A2 G2 G2 G2 | G4 A4 | A4 G4 | !>!A4 G2 G2 | G4 E4 | G4!<(! G2 G2!<)! | !>!A4 G2 G2 | G2 G2 !>!A4 | %19
 G2 G2 G2 G2 | %20
[M:3/2]"^soln –tsa, vi-dyev-she svyet ve-cher –  nyi   po–em  Ot–tsa,  Sy         –          na,         i  Svya – ta   – vo Du-kha Bo   –    ga.""^солн–ца,  ви-дев-ше свет ве–чер  –   ний по–ем  От–ца, Сы         –         на,         и Свя  – та   – го Ду-ха    Бо    –    га ."!mf! (G4 E4) G4 | %21
 !>!A4 G2 G2 G2 E2 | G8 G2!f! G2 | !>!A4 G4 G2 (G2 | A2 G2) G4 A2 G2 | !>!A6 G2 G2 G2 | %26
 (G4 E4) G2!ff! d2 |[M:4/4] DEFG AB ^cA | d4 ^cABc | d4 A2 A2 | A4 (d2 D2) | CDEF GA BG | c4 BGAB | %33
 c4 G2 G2 | G2 G2 FG A2 | GA B2 A2 BA | ^G6 G2 | ^G4- G2 !fermata!z2 | %38
!f!"^Sy   –    nye    Bo – zhii   zhi – vot      da – yai ___________               tyem   zhe        mir      Tya""^Сы   –   не      Бо  – жий  жи – вот     да – яй, ___________               тем     же          мир    Тя" A6 G2 | %39
 G4 G2 G2 | G2 E2 (F2 E2 | !fermata!F8) | A4 A4 | c4 (c2 C2) | %44
"^с л а         –         –         –         –         –         –         –         –         –         –         –         –         –         –         –         –         –         –           в и т .""^s  l a         –         –         –         –         –         –         –         –         –         –         –         –         –         –         –         –         –         –            v  i  t  ." (B,2 C2 D2 d2 | %45
 cB A2 GF EF | GABG A4 |!mp!!<(! A2 GA B2 A2!<)! |!p! ^G4 A4) |!pp! !fermata!^G8 |] %50
V:4
 x8 | x8 | D6 E2 | D4 D2 C2 | D6 E2 | (D6 C2) | D2 x2 G2 G2 | x8 | x8 | x8 | x8 | x8 | x8 | x8 | %14
 x8 | x8 | x8 | x8 | x8 | x8 |[M:3/2] x12 | x12 | x12 | x12 | x12 | x12 | x12 |[M:4/4] x8 | x8 | %29
 x8 | x8 | x8 | x8 | x8 | x8 | x8 | x8 | x8 | x8 | x8 | x8 | x8 | x8 | x8 | x8 | x8 | x8 | x8 | %48
 x8 | x8 |] %50
V:5
 z8 | z8 | z8 | z8 | z8 | z8 | %6
!pp!"^Све    –      те     ти – хий, свя–ты     –      я     сла–вы, без–""^Svye  –       te      ti – khii, svya–ty      –     ya    sla– vy,  bez–"!<(! d6 e2!<)! | %7
 d4 d2 c2 | d6 e2 | d4 d2!p! B2 | c4 c4 | c2 B2 B2 B2 | c4 c4 | c4 (d2 e2) | !>![df]4 [ce]2 [ce]2 | %15
 [Bd]4 [Ac]4 | [Bd]4!<(! [Bd]2 [ce]2!<)! | !>![df]4 [ce]2 [ce]2 | [Bd]2 [Bd]2 !>![df]4 | %19
 [ce]2 [ce]2 [ce]2 [ce]2 |[M:3/2]!mf! ([Bd]4 [Ac]4) [Bd]4 | !>![df]4 [ce]2 [ce]2 [Bd]2 [Ac]2 | %22
 ([Bd]4 [ce]4) [Bd]2!f! [Bd]2 | !>![df]4 [ce]4 [Bd]2 ([Bd][ce] | %24
 [df]2 [ce]2) ([Bd]2 [ce]2) [df]2 [ce]2 | !>![df]6 [ce]2 [ce]2 [ce]2 | (d4 c4) d2 z2 | %27
[M:4/4] z4 z2!ff!"^Dos  –   to         –        in      ye   –      si _____________        vo         vsya               vre – mye –  na,                           Dos –""^Дос  –  то         –       ин      е     –     си _____________       во          вся                вре – ме   –  на,                           Дос  –" A2 | %28
 f4 e2 e2 | d^cBABA Bc | defe dc BA | G2 z2 z2 G2 | %32
"^– то      –      ин       е     –      си _______  вре –  ме   –   на      петь   бы  – ти          гла – сы       пре – по     –    доб  –  ны – ми. ___""^– to       –       in       ye   –      si  ________ vre  – mye –   na       pet'     by  –  ti            gla  – sy       prye – po    –     dob –  ny  –  mi. ___" e4 d2 d2 | %33
 cBAG AG AB | c2 ed c2 fe | d2 gf e2 A2 | B6 B2 | B4- B2 !fermata!z2 |!f! [df]6 [ce]2 | %39
 [Bd]4 [ce]2 [ce]2 | [ce][Bd] [Ac]2 (d2 c2 | !fermata!d8) | f4 e4 | f4 g4 | (a2 g2 fe d2 | %45
 G2 AB c2 Bc | degd e2 de |!mp!!<(! fedc B2 cd!<)! |!p! e4 cB c2) |!pp! !fermata!e8 |] %50
V:6
 x8 | x8 | x8 | x8 | x8 | x8 | B6 c2 | B4 B2 A2 | B6 c2 | B4 B2 B2 | x8 | x8 | x8 | x4 (B2 c2) | %14
 x8 | x8 | x8 | x8 | x8 | x8 |[M:3/2] x12 | x12 | x12 | x12 | x12 | x12 | (B4 A4) B2 x2 | %27
[M:4/4] x8 | x8 | x8 | x8 | x8 | x8 | x8 | x8 | x8 | x8 | x8 | x8 | x8 | x4 A4- | A8 | x8 | x8 | %44
 x8 | x8 | x8 | x8 | x8 | x8 |] %50
V:7
 z8 | z8 | z8 | z8 | z8 | z8 |!pp!!<(! G,6 G,2!<)! | G,4 G,2 G,2 | G,6 G,2 | G,4 G,2!p! G,2 | %10
 C4 A,4 | F,2 G,2 G,2 G,2 | C4 A,4 | F,4 G,4 | !>![D,A,]4 [E,G,]2 [E,G,]2 | G,4 A,4 | %16
 G,4!<(! G,2 G,2!<)! | !>!A,4 G,2 G,2 | G,2 G,2 !>!A,4 | G,2 G,2 G,2 G,2 | %20
[M:3/2]!mf! (G,4 A,4) G,4 | !>!A,4 G,2 G,2 G,2 A,2 | G,8 G,2!f! G,2 | !>!A,4 G,4 G,2 (G,2 | %24
 A,2 G,2) G,4 A,2 G,2 | !>!A,6 G,2 G,2 G,2 | (G,4 A,4) G,2 z2 |[M:4/4] z8 | %28
 z4 z2!ff!"^Dos   –   to          –         in,      Dos   –    to       –        in       ye   –    si""^Дос   –  то          –        ин,     Дос   –   то       –        ин       е   –     си" A,,2 | %29
 A,4 G,2 G,2 | F,E,D,C, B,,A,, G,,2 | G,2 z2 z4 | %32
 z4 z2"^Дос   –  то          –      ин        е     –     си     петь   бы  – ти          гла – сы       пре – по     –    доб  –  ны – ми. ___""^Dos   –   to          –      in         ye   –      si       pet'     by  –  ti            gla  – sy       prye – po    –     dob –  ny  –  mi. ___" G,,2 | %33
 G,4 F,2 F,2 | E,D, C,2 F,E, D,2 | G,F, E,2 A,G, F,2 | E,6 E,2 | E,4- E,2 !fermata!z2 | %38
!f! A,6 G,2 | G,4 G,2 G,2 | G,2 A,2 (F,2 A,2 | !fermata!F,8) | D4 C4 | A,4 C4 | (F,2 E,2 D,2 B,,2 | %45
 C,2 F,2 E,F,G,A, | B,CDB, A,G,F,E, |!mp!!<(! D,C,B,,A,, G,,2 A,,2!<)! |!p! E,4 F,4) | %49
!pp! !fermata!E,8 |] %50
V:8
 x8 | x8 | x8 | x8 | x8 | x8 | D,6 E,2 | D,4 D,2 C,2 | D,6 E,2 | D,4 D,2 z2 | x8 | x8 | x8 | %13
 x4 (G,2 E,2) | x8 | x8 | x4 G,2 E,2 | D,4 E,2 E,2 | G,2 G,2 D,4 | E,2 E,2 E,2 E,2 |[M:3/2] x12 | %21
 D,4 E,2 E,2 G,2 A,2 | (G,4 E,4) G,2 G,2 | D,4 E,4 G,2 (G,E, | D,2 E,2) (G,2 E,2) D,2 E,2 | %25
 D,6 E,2 E,2 E,2 | x12 |[M:4/4] x8 | x8 | x8 | x8 | x8 | x8 | x8 | x8 | x8 | x8 | x8 | D,6 E,2 | %39
 G,4 E,2 E,2 | E,2 A,2 D,4- | D,8 | x8 | x8 | x8 | x8 | x8 | x8 | x8 | x8 |] %50

